X: 3
T: Callaghan's
R: reel
M: 4/4
L: 1/8
K: Dmaj
dB|AFFE FEDE|~F3E FAdB|AFFE FEDE|FABA FEEB|AFFE FEDE|~F3E FAdB|AFFE FEDE|FAEG FDE/F/G|A3B A~F3|ABde fee2|fedc BcdB|ABde fedB|AFAB A~F3|ABde fee2|fedc BcdB|ABde fedB|


Tune 724	Setting 26254

